X: 28869
T: Myr Hooyl Mee Magh Moghrey Laa Boaldyn
R: polka
M: 2/4
K: Bminor
B|B3 B|B2 c2|d2 c2|c2 BB|B2 BA|B2 BA|B2 de|
f3 f|e2 f2|a2 f2|e2 c2|B3 f|f3 e|e2 cA|BA FA|B3||

